docs/img/services/construction.svg

<svg width="53" height="50" viewBox="0 0 53 50" xmlns="http://www.w3.org/2000/svg">
<path d="M50.9766 26.5234C51.8179 26.5234 52.5 25.8413 52.5 25V13.625C52.5 12.7837 51.8179 12.1016 50.9766 12.1016C49.9146 12.1016 29.168 12.1016 28.0234 12.1016V2.25C28.0234 1.40866 27.3413 0.726562 26.5 0.726562H10.25C9.40866 0.726562 8.72656 1.40866 8.72656 2.25V12.1016H2.02344C1.18209 12.1016 0.5 12.7837 0.5 13.625V25C0.5 25.8413 1.18209 26.5234 2.02344 26.5234H8.72656V34.8516H2.02344C1.18209 34.8516 0.5 35.5337 0.5 36.375V47.75C0.5 48.5913 1.18209 49.2734 2.02344 49.2734H50.9766C51.8179 49.2734 52.5 48.5913 52.5 47.75V36.375C52.5 35.5337 51.8179 34.8516 50.9766 34.8516H44.2734V26.5234H50.9766ZM49.4531 23.4766C47.8232 23.4766 37.7597 23.4766 36.1484 23.4766V15.1484H49.4531V23.4766ZM33.1016 23.4766C31.5059 23.4766 21.5046 23.4766 19.8984 23.4766V15.1484H33.1016V23.4766ZM11.7734 3.77344H24.9766V12.1016C23.3809 12.1016 13.3796 12.1016 11.7734 12.1016V3.77344ZM3.54688 23.4766V15.1484H16.8516V23.4766C15.2396 23.4766 5.17645 23.4766 3.54688 23.4766ZM11.7734 26.5234H24.9766V34.8516C23.3809 34.8516 13.3796 34.8516 11.7734 34.8516V26.5234ZM3.54688 37.8984H16.8516V46.2266H3.54688V37.8984ZM19.8984 37.8984H33.1016V46.2266H19.8984V37.8984ZM49.4531 37.8984V46.2266H36.1484V37.8984H49.4531ZM41.2266 34.8516C39.6309 34.8516 29.6296 34.8516 28.0234 34.8516V26.5234H41.2266V34.8516Z" />
</svg>

<svg width="53" height="50" xmlns="http://www.w3.org/2000/svg"><path d="M50.977 26.523c.84 0 1.523-.682 1.523-1.523V13.625c0-.841-.682-1.523-1.523-1.523H28.023V2.25c0-.841-.682-1.523-1.523-1.523H10.25c-.841 0-1.523.682-1.523 1.523v9.852H2.023c-.84 0-1.523.682-1.523 1.523V25c0 .841.682 1.523 1.523 1.523h6.704v8.329H2.023c-.84 0-1.523.682-1.523 1.523V47.75c0 .841.682 1.523 1.523 1.523h48.954c.84 0 1.523-.682 1.523-1.523V36.375c0-.841-.682-1.523-1.523-1.523h-6.704v-8.329h6.704zm-1.524-3.046H36.148v-8.329h13.305v8.329zm-16.351 0H19.898v-8.329h13.204v8.329zM11.773 3.773h13.204v8.329H11.773V3.773zM3.547 23.477v-8.329h13.305v8.329H3.547zm8.226 3.046h13.204v8.329H11.773v-8.329zM3.547 37.898h13.305v8.329H3.547v-8.329zm16.351 0h13.204v8.329H19.898v-8.329zm29.555 0v8.329H36.148v-8.329h13.305zm-8.226-3.046H28.023v-8.329h13.204v8.329z"/></svg>
